!!!OTL: 382. Staendchen. / Rheinlaendische Volksmelodie.
!!!ODT: 1891
!!!ARE: Europa, Mitteleuropa, Deutschland, Rheinland, Kreuznach, Trossingen
!!!SCT: B0382A
!!!TXL: @@DE
!!!YEM: Copyright 1995, estate of Helmut Schaffrath.
**kern	**text
*ICvox	*
*Ivox	*
*M4/4	*
*clefG2	*
*met(c)	*
*k[f#c#]	*
*D:	*
=1	=1
!LO:TX:a:t=Ruhig.	!
{4.f#	Wenn
8f#	die
4f#	Nacht
4a	mit
=2	=2
4.a	ſü-
8g	-ßer
2f#}	Ruh'
=3	=3
{4e	längſt
4a	die
4cc#	Mü-
4b	-den
=4	=4
(4a	loh-
4g#)	.
2a}	-net,
=5	=5
{4.f#	Eil'
8f#	ich
4f#	auf
4a	das
=6	=6
4.a	Hütt-
8g	-chen
2f#}	ʒu,
=7	=7
{4e	wo
4a	mein
4cc#	Lieb-
4b	-chen
=8	=8
(4a	woh-
4g#)	.
2a}	-net,
=9	=9
{4cc#	wünſch'
4a	ihr,
8.e	wünſch'
16f#	ihr
8.gn	noch
16a	um
=10	=10
4b	Mit-
4a	-ter-
2f#}	-nacht
=11	=11
{4cc#	ei-
4a	-ne,
8.e	ei-
16f#	-ne
8.g	ſü-
16a	-ße
=12	=12
4b	gu-
4a	-te
2f#}	Nacht,
=13	=13
{4.a	wünſch'
8a	ich
4.b	dir
8b	um
=14	=14
4.cc#	Mit-
8cc#	-ter-
2dd}	-nacht
=15	=15
{4dd	ei-
8cc#L	-ne
8bJ	.
4a	ſchö-
4f#	-ne
=16	=16
4g	gu-
8aL	-te
8gJ	.
2f#;}	Nacht.
==	==
!!!AGN: Liebes - Lied, Liebes - Lust
!!!GTL: Liebeslieder - Liebeslust
!!!ONB: ESAC (Essen Associative Code) Database: BOEHME
!!!AMT: simple quadruple
!!!AIN: vox
!!!EED: Helmut Schaffrath
!!!EEV: 1.0
!!Aus Troisen bei Krueznach. 1891. 
!!!Text: H. W. von Stamford
!!!URL-scan: https://archive.org/details/BoehmeVtLieder1895/page/n319/mode/2up
!!!ENC: Anna Maria Matuszewska
!!!EEV: 2024/08/07
*-	*-
